!!!SOCIAL_FUNCTION: steal-partner dance songs
!!!PDT:	1943
!!!LING_GROUP: Muskogean
!!!LANG: Non-Tone
Specific Region: Oklahoma, California, Mississippi, Louisiana, Texas, Alabama
!!!REG: Southeast
!!!COM: Anon.
!!!OTL: Snake Dance Song (b)
!!!ODT: <1933//
!!!MPN: Lysander Tubby
!!!MLC: Philadelphia, Mississippi, United States of America
!! Song was recorded in January 1933.
!!!AGN: monody
!!!AMT: irregular
!!!RWG: Transcribed pitches, durations, and meters are only approximate.
**kern
*ICvox
*Imale
*clefF4
*k[b-]
*MM63
*[A,B,B,B,B,B,B,B,C,C,C,C,C,A]
*>A
*M2/4
=1-
8.F
16G
4G
*M3/4
=2
8.A
16F
(8F
8C)
4C
*M2/4
=3
8.A
16G#
4G#
*M3/4
=4
8.Gn
16F
8F
8C
8C
8r
*M2/4
=5
8F
16F
16F
4G
*M3/4
=6
8.A
16F
(8F
8C)
4C
*M2/4
=7
8c
16A
16A
4A
*M3/4
=8
8.G
16F
(8F
8C)
8C
8r
*M2/4
=9
8F
16F
16F
4G
*M3/4
=10
8.A
16F
(8F
8C)
4C
*M2/4
=11
8c
16A
16A
4A
*M3/4
=12
8.G
16F
(8F
8C)
8C
8r
==
*>B
*M2/4
=!|:
16A
16A
8A
16A
16A
16A
16r
=:||:
*>C
16A
16A
8A
8A
16A
16r
=:|!
*-
!!!CNT: Choctaw
!!!TXO: Choctaw
!!!OCY: United States
!!!OCL: Frances Densmore
!!!YOR: Frances Densmore, "Choctaw Music"
!!!YOR: Bulletin 136, page 153, No. 32
!!!PPR: Smithsonian Institution, Bureau of American Ethnology
!!!PPR: Government Printing Office
!!!PDT: 1943
!!!PPP: Washington, DC, United States of America
!!!YEC: Electronic Copyright 2000 David Huron
!!!YER: August 2000
!!!YEN: United States of America
!!!ENC: David Huron
!!!RDT: August 28, 2000
!!!EEV: Release 1.0
!!!AIN: vox
